X:1
T: The Little Beggarman
C:
R:Reel
Q: 232
K:A
M:4/4
L:1/8
|:AF|E2 A2 AB cd|ef ec d2 cd|e2 A2 AB cA|BE EF =G2 GF|
E2 A2 AB cd|ef ec d2 cd|e2 a2 af ed|c2 A2 A2 ef|
=g2 ef g2 ef|=gf ec d2 cd|e2 A2 AB cA|BE EF =G2 GF|
E2 A2 AB cd|ef ec d2 cd|e2 a2 af ed|c2 A2 A2:|
